icons/filled/article.svg

<svg xmlns="http://www.w3.org/2000/svg" width="24" height="24" viewBox="0 0 24 24" fill="currentColor"><path d="M19 3a3 3 0 0 1 2.995 2.824l.005 .176v12a3 3 0 0 1 -2.824 2.995l-.176 .005h-14a3 3 0 0 1 -2.995 -2.824l-.005 -.176v-12a3 3 0 0 1 2.824 -2.995l.176 -.005h14zm-2 12h-10l-.117 .007a1 1 0 0 0 0 1.986l.117 .007h10l.117 -.007a1 1 0 0 0 0 -1.986l-.117 -.007zm0 -4h-10l-.117 .007a1 1 0 0 0 0 1.986l.117 .007h10l.117 -.007a1 1 0 0 0 0 -1.986l-.117 -.007zm0 -4h-10l-.117 .007a1 1 0 0 0 0 1.986l.117 .007h10l.117 -.007a1 1 0 0 0 0 -1.986l-.117 -.007z"/></svg>

<svg xmlns="http://www.w3.org/2000/svg" width="24" height="24" fill="currentColor"><path d="M19 3a3 3 0 0 1 2.995 2.824L22 6v12a3 3 0 0 1-2.824 2.995L19 21H5a3 3 0 0 1-2.995-2.824L2 18V6a3 3 0 0 1 2.824-2.995L5 3zm-2 12H7l-.117.007a1 1 0 0 0 0 1.986L7 17h10l.117-.007a1 1 0 0 0 0-1.986zm0-4H7l-.117.007a1 1 0 0 0 0 1.986L7 13h10l.117-.007a1 1 0 0 0 0-1.986zm0-4H7l-.117.007a1 1 0 0 0 0 1.986L7 9h10l.117-.007a1 1 0 0 0 0-1.986z"/></svg>
